src/assets/images/dapp_default_icon.svg

<?xml version="1.0" encoding="UTF-8"?>
<svg width="140px" height="140px" viewBox="0 0 140 140" version="1.1" xmlns="http://www.w3.org/2000/svg" xmlns:xlink="http://www.w3.org/1999/xlink">
    <title>tree-round-未知</title>
    <g id="v2-更新" stroke="none" stroke-width="1" fill="none" fill-rule="evenodd">
        <g id="钱包交易首页（有图标拿favicon,没有图favicon显示问号）" transform="translate(-305.000000, -119.000000)" fill="#666666" fill-rule="nonzero">
            <g id="tree-round-未知" transform="translate(305.000000, 119.000000)">
                <path d="M70,0 C31.3395326,0 0,31.3395326 0,70 C0,108.660467 31.3395326,140 70,140 C108.660467,140 140,108.660467 140,70 C140,31.3395325 108.660467,0 70,0 Z M69.5566854,108.4872 C68.1532452,108.4872 66.8072862,107.929686 65.8149041,106.937303 C64.822522,105.944921 64.2650076,104.598962 64.2650076,103.195522 C64.2650076,100.273009 66.6341725,97.9038445 69.5566854,97.9038445 C72.4441992,97.9534356 74.7590298,100.308363 74.7590298,103.196303 C74.7590298,106.084242 72.4441992,108.43917 69.5566854,108.488761 L69.5566854,108.4872 Z M91.6303185,61.2976094 C90.0787174,64.0886183 87.0494009,67.4800791 82.5423691,71.4719918 C79.5140934,74.1537329 77.547275,76.133039 76.6106948,77.403666 C75.649448,78.726965 74.9427935,80.2175561 74.526804,81.7993489 C74.1917164,83.0335534 73.9627746,84.842714 73.8399786,87.2268308 C73.7627127,88.7003443 72.5447996,89.8551317 71.0692623,89.853939 L67.5648917,89.853939 C66.0334012,89.8530816 64.7913728,88.6131476 64.7879314,87.0816608 L64.7879314,87.0629293 C64.7879314,83.41547 65.3035709,80.2664794 66.3348497,77.6159576 C67.0903577,75.6179199 68.3120744,73.6037523 69.9999999,71.5734546 C71.2425296,70.0905361 73.4705497,67.9291172 76.6840603,65.0891981 C79.8975709,62.249279 81.9882259,59.987438 82.9560253,58.3036749 C83.9219166,56.6245551 84.4219954,54.7180044 84.4046026,52.780974 C84.4046026,49.1636934 82.9945292,45.9897273 80.1743823,43.2590759 C77.3542354,40.5284245 73.8940921,39.1599768 69.7939524,39.1537329 C65.8395029,39.1537329 62.534936,40.3921 59.8802515,42.8688341 C57.9477745,44.6785151 56.4997175,47.2280944 55.5360806,50.5175721 C55.0494156,52.1826862 53.7092089,53.4602584 52.0227251,53.8667311 C50.3362412,54.2732039 48.5611646,53.7464705 47.369357,52.4858982 C46.1775494,51.2253259 45.7511117,49.4235224 46.2514494,47.7624655 C47.5584991,43.3761485 49.732926,39.8379568 52.7747301,37.1478904 C57.026804,33.4015699 62.6462848,31.525808 69.6331727,31.5206048 C77.0342371,31.5206048 82.937814,33.5347724 87.3439033,37.5631076 C91.7499926,41.5914428 93.9530372,46.4621799 93.9530372,52.1753189 C93.9780663,55.3654618 93.1779396,58.507895 91.6303185,61.2976094 L91.6303185,61.2976094 Z" id="形状"></path>
            </g>
        </g>
    </g>
</svg>

<svg width="140" height="140" xmlns="http://www.w3.org/2000/svg"><path d="M70 0C31.34 0 0 31.34 0 70s31.34 70 70 70 70-31.34 70-70S108.66 0 70 0zm-.443 108.487a5.292 5.292 0 1 1 0-10.583 5.293 5.293 0 0 1 0 10.585v-.002zm22.073-47.19c-1.551 2.792-4.58 6.183-9.088 10.175-3.028 2.682-4.995 4.661-5.931 5.932a13.185 13.185 0 0 0-2.084 4.395c-.335 1.235-.564 3.044-.687 5.428a2.772 2.772 0 0 1-2.77 2.627h-3.505a2.779 2.779 0 0 1-2.777-2.772v-.02c0-3.647.516-6.796 1.547-9.446.755-1.998 1.977-4.012 3.665-6.043 1.243-1.482 3.47-3.644 6.684-6.484s5.304-5.102 6.272-6.785a10.88 10.88 0 0 0 1.449-5.523c0-3.617-1.41-6.791-4.23-9.522-2.82-2.73-6.28-4.099-10.381-4.105-3.954 0-7.26 1.238-9.914 3.715-1.932 1.81-3.38 4.36-4.344 7.649a4.842 4.842 0 1 1-9.285-2.756c1.307-4.386 3.482-7.924 6.524-10.614 4.252-3.746 9.871-5.622 16.858-5.627 7.401 0 13.305 2.014 17.71 6.042 4.407 4.028 6.61 8.9 6.61 14.612a18.505 18.505 0 0 1-2.323 9.123z" fill="#666"/></svg>
